!!!COM: Mozart, Wolfgang Amadeus
!!!OTL: String Quartet No. 23 in F Major
!!!OMD: Allegro
!!!OMV: 4
!!!SCT1: K<sup>1</sup> 590
!!!SCA: Chronologisch-thematisches Verzeichnis sämtlicher Tonwerke Wolfgang Amade Mozarts (L. von Köchel; 1862, 2/1905, 3/1937, 1947)
!!!SCT2: K<sup>6</sup> 590
!!!YOR: Breitkopf & Härtel Edition
!!!ENC: Frances Bennion
!!!CDT: 1756/1/27/-1791/12/5/
!!!OCY: Österreich
!!!YEC: Copyright (c) 1994, 2000 Center for Computer Assisted Research in the Humanities
!!!YEM: Rights to all derivative editions reserved.
!!!YEM: Refer to licensing agreement for further details.
!!!YEN: United States of America
**kern	**kern	**kern	**kern
*k[b-]	*k[b-]	*k[b-]	*k[b-]
*F:	*F:	*F:	*F:
*clefC	*clefF	*clefG	*clefG
*M2/4	*M2/4	*M2/4	*M2/4
4.r	4.r	4.r	4.r
8r	8r	8r	16ccc
.	.	.	16bb-
=1	=1	=1	=1
8F	8c	8f	16aa
.	.	.	16ccc
8F	8c	8f	16bb-
.	.	.	16aa
8C	8e	8b-	16gg
.	.	.	16bb-
8C	8e	8b-	16aa
.	.	.	16gg
=2	=2	=2	=2
4FF	4f	4a	16ee
.	.	.	16ff
.	.	.	16aa
.	.	.	16ff
8r	8r	8r	8cc
8F	8f	8a	8cc#
=3	=3	=3	=3
8F	8f	8b-	16dd
.	.	.	16ee
8F	8f	8b-	16ff
.	.	.	16gg
8F	8f	8b-	16aa
.	.	.	16bb-
8F	8f	8b-	16ccc
.	.	.	16ddd
=4	=4	=4	=4
4F	4g	4ee	8ccc
.	.	.	8bb-
4r	8a	8ff	8aa
.	8r	8r	16ccc
.	.	.	16bb-
=5	=5	=5	=5
2r	2r	8f	16aa
.	.	.	16ccc
.	.	8cc	16bb-
.	.	.	16aa
.	.	8g	16gg
.	.	.	16bb-
.	.	8cc	16aa
.	.	.	16gg
=6	=6	=6	=6
2r	2r	8a	16ff
.	.	.	16aa
.	.	8cc	16gg
.	.	.	16ff
.	.	8g	16ee
.	.	.	16gg
.	.	8cc	16ff
.	.	.	16ee
=7	=7	=7	=7
4.r	8r	8f	16dd
.	.	.	16ff
.	8f	4cc	16ee
.	.	.	16dd
.	8g	.	16gg
.	.	.	16ee
8G	8f	8b	16ff
.	.	.	16dd
=8	=8	=8	=8
8c	4e	4cc	4cc
8G	.	.	.
8C	8r	4r	4r
8r	16cc	.	.
.	16b-	.	.
=9	=9	=9	=9
8F	16a	8A	8c
.	16cc	.	.
8F	16b-	8A	8c
.	16a	.	.
8C	16g	8B-	8e
.	16b-	.	.
8C	16a	8B-	8e
.	16g	.	.
=10	=10	=10	=10
4FF	16e	4A	4f
.	16f	.	.
.	16a	.	.
.	16f	.	.
8r	8c	8r	4r
8F	8c#	8A	.
=11	=11	=11	=11
8F	16d	8B-	8r
.	16e	.	.
8F	16f	8B-	8d
.	16g	.	.
8F	16a	8B-	8d
.	16b-	.	.
8F	16cc	8B-	8d
.	16dd	.	.
=12	=12	=12	=12
4F	8cc	4G	4e
.	8b-	.	.
8FF	8a	8A	8f
8r	16cc	8r	8r
.	16b-	.	.
=13	=13	=13	=13
8F	16a	2r	2r
.	16cc	.	.
8c	16b-	.	.
.	16a	.	.
8G	16g	.	.
.	16b-	.	.
8c	16a	.	.
.	16g	.	.
=14	=14	=14	=14
8A	16f	2r	2r
.	16a	.	.
8c	16g	.	.
.	16f	.	.
8G	16e	.	.
.	16g	.	.
8c	16f	.	.
.	16e	.	.
=15	=15	=15	=15
8F	16d	8r	2r
.	16f	.	.
8A	16e	4c	.
.	16d	.	.
8G	16g	.	.
.	16e	.	.
8GG	16f	8B	.
.	16d	.	.
=16	=16	=16	=16
8C	4c	4c	4.r
8GG	.	.	.
8CC	4r	4r	.
8r	.	.	16ee
.	.	.	16ff
=17	=17	=17	=17
8B-	8e	8cc	16gg
.	.	.	16aa
8B-	8e	8cc	16gg
.	.	.	16aa
8A	8f	8cc	8ff
8r	8r	8r	16gg
.	.	.	16aa
=18	=18	=18	=18
8E	8g	8cc	16bb-
.	.	.	16ccc
8E	8g	8cc	16bb-
.	.	.	16ccc
8F	8f	8cc	8aa
8r	8r	8r	16ddd
.	.	.	16ccc
=19	=19	=19	=19
8d	4.f	8ff	16bb-
.	.	.	16ccc
8c	.	8ee	16aa
.	.	.	16bb-
8B-	.	4dd	16gg
.	.	.	16aa
8B	[8g	.	16ff
.	.	.	16gg
=20	=20	=20	=20
8c	8g]	8cc	16ee
.	.	.	16ff
8G	8f	8b	16dd
.	.	.	16ee
8C	8e	8cc	8cc
8r	8r	8r	16ddd
.	.	.	16ccc
=21	=21	=21	=21
2r	2r	8dd	16bb-
.	.	.	16ddd
.	.	8ff	16ccc
.	.	.	16bb-
.	.	8cc	16aa
.	.	.	16ccc
.	.	8ff	16bb-
.	.	.	16aa
=22	=22	=22	=22
2r	2r	8b-	16gg
.	.	.	16bb-
.	.	8ff	16aa
.	.	.	16gg
.	.	8a	16ff
.	.	.	16aa
.	.	8ff	16gg
.	.	.	16ff
=23	=23	=23	=23
4.r	8r	8b-	16gg
.	.	.	16aa
.	8g	8dd	16bb-
.	.	.	16gg
.	8cc	8cc	16ee
.	.	.	16ff
8C	8e	8b-	16gg
.	.	.	16aa
=24	=24	=24	=24
8F	4f	4a	4ff
8C	.	.	.
8FF	8r	4r	4r
8r	16e	.	.
.	16f	.	.
=25	=25	=25	=25
8B-	16g	8c	8e
.	16a	.	.
8B-	16g	8c	8e
.	16a	.	.
8A	8f	8c	8f
8r	16g	8r	8r
.	16a	.	.
=26	=26	=26	=26
8E	16b-	8c	8g
.	16cc	.	.
8E	16b-	8c	8g
.	16cc	.	.
8F	8a	8c	8f
8r	16dd	8r	8r
.	16cc	.	.
=27	=27	=27	=27
8D	16b-	8B-	8f
.	16cc	.	.
8C	16a	8c	8e
.	16b-	.	.
8BB-	16g	8d	4d
.	16a	.	.
8BB	16f	8G	.
.	16g	.	.
=28	=28	=28	=28
8C	16e	[4G	8c
.	16f	.	.
8GG	16d	.	8B
.	16e	.	.
8CC	8c	8G]	8c
8r	16dd	8r	8r
.	16cc	.	.
=29	=29	=29	=29
8D	16b-	2r	2r
.	16dd	.	.
8F	16cc	.	.
.	16b-	.	.
8C	16a	.	.
.	16cc	.	.
8F	16b-	.	.
.	16a	.	.
=30	=30	=30	=30
8BB-	16g	2r	2r
.	16b-	.	.
8F	16a	.	.
.	16g	.	.
8AA	16f	.	.
.	16a	.	.
8F	16g	.	.
.	16f	.	.
=31	=31	=31	=31
8BB-	16g	8r	2r
.	16a	.	.
8GG	16b-	8d	.
.	16g	.	.
8C	16e	8c	.
.	16f	.	.
8CC	16g	8B-	.
.	16a	.	.
=32	=32	=32	=32
4FF	8f	4A	2r
.	8c	.	.
4r	8E	8r	.
.	8c	16cc	.
.	.	16b-	.
=33	=33	=33	=33
4.r	8F	16a	4.r
.	.	16cc	.
.	8c	16b-	.
.	.	16a	.
.	8G	16g	.
.	.	16b-	.
16C	[8c	16a	16e
16BB-	.	16g	32d
.	.	.	32e
=34	=34	=34	=34
16AA	8c]	4f	4f
16C	.	.	.
16BB-	8c	.	.
16AA	.	.	.
16GG	8E	8r	8r
16BB-	.	.	.
16AA	8c	16cc	16g
16GG	.	16b-	32f
.	.	.	32g
=35	=35	=35	=35
4FF	8F	16a	4a
.	.	16cc	.
.	8c	16b-	.
.	.	16a	.
8r	8G	16g	8r
.	.	16b-	.
16c	[8c	16a	16ee
16B-	.	16g	32dd
.	.	.	32ee
=36	=36	=36	=36
16A	8c]	4f	4ff
16c	.	.	.
16B-	8cc	.	.
16A	.	.	.
16G	8e	8r	8r
16B-	.	.	.
16A	8cc	16ccc	16gg
16G	.	16bb-	32ff
.	.	.	32gg
=37	=37	=37	=37
4F	8f	16aa	4aa
.	.	16ccc	.
.	8cc	16bb-	.
.	.	16aa	.
8r	8g	16gg	8r
.	.	16bb-	.
16ccc	8r	16aa	16eee
16bb-	.	16gg	32ddd
.	.	.	32eee
=38	=38	=38	=38
16aa	4.r	16ff	8fff
16ccc	.	16aa	.
16bb-	.	16gg	8r
16aa	.	16ff	.
16gg	.	16ee	4c
16bb-	.	16gg	.
16aa	16cc	16ff	.
16gg	16b-	16ee	.
=39	=39	=39	=39
16ff	16a	16dd	8.f
16aa	16cc	16ff	.
16gg	16b-	16ee	.
16ff	16a	16dd	48g
.	.	.	48a
.	.	.	48b-
16ee	16g	16cc	8.cc
16gg	16b-	16ee	.
16ff	16a	16dd	.
16ee	16g	16cc	32dd
.	.	.	32ee
=40	=40	=40	=40
16dd	16f	16b-	8ff
16ff	16a	16dd	.
16ee	16g	16cc	8ff
16dd	16f	16b-	.
16cc	16e	16a	8.ff
16ee	16g	16cc	.
16dd	16f	16b-	.
16cc	16e	16a	32gg
.	.	.	32aa
=41	=41	=41	=41
16b-	16d	16g	8bb-
16dd	16f	16b-	.
16cc	16e	16a	8bb-
16b-	16d	16g	.
16a	16c	16f	8ddd
16cc	16e	16a	.
16b-	16d	16g	8ddd
16a	16c	16f	.
=42	=42	=42	=42
4.g	4.B-	4.e	4.c
8r	8r	8r	16ee
.	.	.	16dd
=43	=43	=43	=43
2E	[2c	2g	16cc
.	.	.	16ee
.	.	.	16dd
.	.	.	16cc
.	.	.	16b-
.	.	.	16dd
.	.	.	16cc
.	.	.	16b-
=44	=44	=44	=44
4F	4c]	4f	4a
4r	4r	4r	16r
.	.	.	16cc
.	.	.	16b-
.	.	.	16a
=45	=45	=45	=45
4BB-	4B-	4d	4g
8r	8r	8r	8r
8r	8r	8r	16cc
.	.	.	16b-
=46	=46	=46	=46
2BB-	4D	2d	16a
.	.	.	16cc
.	.	.	16b-
.	.	.	16a
.	4B-	.	16g
.	.	.	16b-
.	.	.	16a
.	.	.	16g
=47	=47	=47	=47
4C	4A	4c	4f
4r	4r	4r	16r
.	.	.	16a
.	.	.	16g
.	.	.	16f
=48	=48	=48	=48
4CC	4G	4B-	4e
8r	8r	8r	8r
16C	8e	8g	8cc
16BB-	.	.	.
=49	=49	=49	=49
16AA	8f	8cc	8ff
16C	.	.	.
16BB-	8r	8r	8ff
16AA	.	.	.
16GG	8c	8ee 8b-	8.gg
16BB-	.	.	.
16AA	8r	8r	.
16GG	.	.	32ff
.	.	.	32gg
=50	=50	=50	=50
4FF	4c	4ff 4a	4aa
8r	8r	8r	8r
8FF	16a	16cc	16ff
.	16g	16b-	32ee
.	.	.	32ff
=51	=51	=51	=51
8F	16f	16a	8aa
.	16a	16cc	.
8r	16g	16b-	8aa
.	16f	16a	.
8A	16e	16g	8cc#
.	16g	16b-	.
8r	16f	16a	8cc#
.	16e	16g	.
=52	=52	=52	=52
8DD	8d	16f	8dd
.	.	16f	.
8D	4A	16e	4ddd
.	.	16f	.
8D	.	16g	.
.	.	16f	.
8D	8A	16e	16aa
.	.	16f	16ff
=53	=53	=53	=53
8D	8F	16A	8dd
.	.	16f	.
8D	4A	16e	8a
.	.	16f	.
8D	.	16g	8f
.	.	16f	.
8D	8A	16e	8d
.	.	16f	.
=54	=54	=54	=54
8DD	8G	16B-	4c#
.	.	16g	.
8D	4e	16f#	.
.	.	16g	.
8D	.	16a	4bb-
.	.	16g	.
8D	8e	16f#	.
.	.	16g	.
=55	=55	=55	=55
8DD	8G	16e	4.B-
.	.	16g	.
8D	4e	16f#	.
.	.	16g	.
8D	.	16a	.
.	.	16g	.
8D	8e	16f#	16A
.	.	16g	16B-
=56	=56	=56	=56
8CC#	8E	16A	8A
.	.	16g	.
8C#	4A	16f#	4eee
.	.	16g	.
8C#	.	16a	.
.	.	16g	.
8C#	8A	16f#	16ccc#
.	.	16g	16aa
=57	=57	=57	=57
8C#	8E	16A	8gg
.	.	16e	.
8C#	4A	16d	8ee
.	.	16e	.
8C#	.	16f	8cc#
.	.	16e	.
8C#	8A	16d	8g
.	.	16e	.
=58	=58	=58	=58
8CC	8E-	16A	4f#
.	.	16e-	.
8C	4c	16d	.
.	.	16e-	.
8C	.	16f	4aa
.	.	16e-	.
8C	8c	16d	.
.	.	16e-	.
=59	=59	=59	=59
8CC	8F	16d	4.A-
.	.	16f	.
8C	4d	16e	.
.	.	16f	.
8C	.	16g	.
.	.	16f	.
8C	8d	16e	16G
.	.	16f	16A-
=60	=60	=60	=60
8BB	8F	16d	8G
.	.	16f	.
8B	4g	16e	4ddd
.	.	16f	.
8B	.	16g	.
.	.	16f	.
8B	8g	16e	16bb
.	.	16f	16gg
=61	=61	=61	=61
8BB	8D	16G	8ff
.	.	16d	.
8B	4g	16c#	8dd
.	.	16d	.
8B	.	16e	8b
.	.	16d	.
8B	8g	16c#	8f
.	.	16d	.
=62	=62	=62	=62
8C	8G	16c	8e
.	.	16g	.
8c	4e	16f#	4eee
.	.	16g	.
8c	.	16a	.
.	.	16g	.
8c	8e	16f#	16ccc
.	.	16g	16gg
=63	=63	=63	=63
8CC	8C	16G	8ee
.	.	16c	.
8C	4E	16B	8cc
.	.	16c	.
8C	.	16d	8g
.	.	16c	.
8C	8G	16B	8e
.	.	16c	.
=64	=64	=64	=64
8FF	8F	16A	8d
.	.	16d	.
8F	4A	16c#	4ccc
.	.	16d	.
8F	.	16e	.
.	.	16d	.
8F	8A	16c#	16aa
.	.	16d	16ff
=65	=65	=65	=65
8FF#	8F#	16d	8dd
.	.	16a	.
8F#	4d	16g#	4aa
.	.	16a	.
8F#	.	16b	.
.	.	16a	.
8F#	8d	16g#	16ff#
.	.	16a	16cc
=66	=66	=66	=66
8GG	4d	4g	4b
8G	.	.	.
8G	8r	8r	8r
8G	16g	8b	8dd
.	16f	.	.
=67	=67	=67	=67
8G	16e	8cc	8ee
.	16g	.	.
8G	16f	8cc	8ee
.	16e	.	.
8G	16d	8dd	8ff
.	16f	.	.
8G	16e	8dd	8ff
.	16d	.	.
=68	=68	=68	=68
8G	4c	8ee	8gg
8G	.	8cc	8ee
8G	8r	8r	8r
8G	8f#	16dd	8aa
.	.	16cc	.
=69	=69	=69	=69
8G	8g	16b	8bb
.	.	16dd	.
8G	8g	16cc	8bb
.	.	16b	.
8G	8a	16a	8ccc
.	.	16cc	.
8G	8a	16b	8ccc
.	.	16a	.
=70	=70	=70	=70
4G	8b	4g	8ddd
.	8g	.	8bb
8r	8G	8r	8r
8B	8G	8d	16gg
.	.	.	16ff
=71	=71	=71	=71
8c	8G	8e	16ee
.	.	.	16gg
8c	8G	8e	16ff
.	.	.	16ee
8d	8G	8f	16dd
.	.	.	16ff
8d	8G	8f	16ee
.	.	.	16dd
=72	=72	=72	=72
8e	4G	8g	4cc
8c	.	8e	.
8GG	8r	8r	8r
8GG	8F#	8A	16ddd
.	.	.	16ccc
=73	=73	=73	=73
8GG	8G	8B	16bb
.	.	.	16ddd
8GG	8G	8B	16ccc
.	.	.	16bb
8GG	8A	8c	16aa
.	.	.	16ccc
8GG	8A	8c	16bb
.	.	.	16aa
=74	=74	=74	=74
4GG	4B	4d	4gg
8r	8r	8r	8r
16D	16d	16d	16d
16C	16c	16c	16c
=75	=75	=75	=75
16BB	16B	16B	16B
16D	16d	16d	16d
16C	16c	16c	16c
16BB	16B	16B	16B
16AA	16A	16A	16A
16C	16c	16c	16c
16BB	16B	16B	16B
16AA	16A	16A	16A
=76	=76	=76	=76
4GG	4G	4G	8G
.	.	.	16A
.	.	.	16B
4r	4r	4r	16c
.	.	.	16d
.	.	.	16e
.	.	.	16f#
=77	=77	=77	=77
2r	2r	4.r	8g
.	.	.	16a
.	.	.	16b
.	.	.	16cc
.	.	.	16dd
.	.	16gg	16ee-
.	.	16ff	16ff
=78	=78	=78	=78
2r	2r	16ee-	8gg
.	.	16gg	.
.	.	16ff	8gg
.	.	16ee-	.
.	.	16dd	8gg
.	.	16ff	.
.	.	16ee-	8gg
.	.	16dd	.
=79	=79	=79	=79
2r	2r	16cc	8gg
.	.	16ee-	.
.	.	16dd	8gg
.	.	16cc	.
.	.	16b-	8gg
.	.	16dd	.
.	.	16cc	8gg
.	.	16b-	.
=80	=80	=80	=80
2r	2c	[2a-	4gg
.	.	.	8aa-
.	.	.	8ee
=81	=81	=81	=81
2r	[2d	4.a-]	8gg
.	.	.	8ff#
.	.	.	8ff
.	.	16ff	8ff
.	.	16ee-	.
=82	=82	=82	=82
2r	2d_	16dd	8ff
.	.	16ff	.
.	.	16ee-	8ff
.	.	16dd	.
.	.	16cc	8ff
.	.	16ee-	.
.	.	16dd	8ff
.	.	16cc	.
=83	=83	=83	=83
2r	4d]	16b-	8ff
.	.	16dd	.
.	.	16cc	8ff
.	.	16b-	.
.	4c	16a-	8ff
.	.	16cc	.
.	.	16b-	8ff
.	.	16a-	.
=84	=84	=84	=84
2r	2B	[2g	4ff
.	.	.	8gg
.	.	.	8dd
=85	=85	=85	=85
2r	4.c	4.g]	8ff
.	.	.	8ee
.	.	.	8ee-
.	16g	8r	8ee-
.	16f	.	.
=86	=86	=86	=86
2r	16e-	2r	8ee-
.	16g	.	.
.	16f	.	8bb-
.	16e-	.	.
.	16d	.	8bb-
.	16f	.	.
.	16e-	.	8bb-
.	16d	.	.
=87	=87	=87	=87
4.r	16c	4.r	8bb-
.	16e-	.	.
.	16d	.	8bb-
.	16c	.	.
.	16B-	.	8bb-
.	16d	.	.
16A-	16c	8ee-	8bb-
16G	16B-	.	.
=88	=88	=88	=88
16F	[2A-	8ee-	4bb-
16A-	.	.	.
16G	.	8ee-	.
16F	.	.	.
16E-	.	8ee-	8ccc
16G	.	.	.
16F	.	8ee-	8gg
16E-	.	.	.
=89	=89	=89	=89
16D	4.A-]	8ee-	8bb-
16F	.	.	.
16E-	.	8ee-	8aa
16D	.	.	.
16C	.	8ee-	8aa-
16E-	.	.	.
16D	16f	8ee-	8aa-
16C	16e-	.	.
=90	=90	=90	=90
[2BB-	16d	4ee-	8aa-
.	16f	.	.
.	16e-	.	8aa-
.	16d	.	.
.	16c	8ff	8aa-
.	16e-	.	.
.	16d	8cc	8aa-
.	16c	.	.
=91	=91	=91	=91
4.BB-]	16B-	8ee-	8aa-
.	16d	.	.
.	16c	8dd	8aa-
.	16B-	.	.
.	16A-	8dd	8aa-
.	16c	.	.
16G	16B-	8dd	8aa-
16F	16A-	.	.
=92	=92	=92	=92
16E-	[2G	8dd	4aa-
16G	.	.	.
16F	.	8dd	.
16E-	.	.	.
16D	.	8dd	8bb-
16F	.	.	.
16E-	.	8dd	8ff
16D	.	.	.
=93	=93	=93	=93
16C	4.G]	8dd	8aa-
16E-	.	.	.
16D	.	8dd	8gg
16C	.	.	.
16BB-	.	8dd	8gg
16D	.	.	.
16C	16A-	8dd	8gg
16BB-	16B-	.	.
=94	=94	=94	=94
[2AA-	16c	4dd	8gg
.	16A-	.	.
.	16B-	.	8gg
.	16c	.	.
.	16d	8ee-	8gg
.	16B-	.	.
.	16c	8b	8gg
.	16d	.	.
=95	=95	=95	=95
2AA-]	16e-	8dd	8gg
.	16c	.	.
.	16d	8cc	8ccc
.	16e-	.	.
.	16f	8cc	8ff
.	16d	.	.
.	16e-	8cc	8ff
.	16f	.	.
=96	=96	=96	=96
4GG	4g	4b	4ff
4r	4r	4r	16r
.	.	.	16aa
.	.	.	16gg
.	.	.	16ff
=97	=97	=97	=97
4AA	4c	4cc	4ee
8r	8r	8r	8r
8r	8r	8r	16gg
.	.	.	16ff
=98	=98	=98	=98
2F	4g	2a	16ee
.	.	.	16gg
.	.	.	16ff
.	.	.	16ee
.	4f	.	16dd
.	.	.	16ff
.	.	.	16ee
.	.	.	16dd
=99	=99	=99	=99
4G	4e	4g	4cc
4r	4r	4r	16r
.	.	.	16ee
.	.	.	16dd
.	.	.	16cc
=100	=100	=100	=100
4GG	4d	4f	4b
8r	8r	8r	8r
16G	8r	8r	8r
16F	.	.	.
=101	=101	=101	=101
16E	4.r	2r	2r
16G	.	.	.
16F	.	.	.
16E	.	.	.
16D	.	.	.
16F	.	.	.
16E	16c	.	.
16D	16B	.	.
=102	=102	=102	=102
4C	16A	4.r	2r
.	16c	.	.
.	16B	.	.
.	16A	.	.
4BB	16G	.	.
.	16B	.	.
.	16A	16d	.
.	16G	16e	.
=103	=103	=103	=103
4AA	4F	16f	4.r
.	.	16d	.
.	.	16e	.
.	.	16f	.
4GG	4E	16g	.
.	.	16e	.
.	.	16f	16dd
.	.	16g	16ee
=104	=104	=104	=104
4FF	4D	4a	16ff
.	.	.	16dd
.	.	.	16ee
.	.	.	16ff
4EE	[4C	4b-	16gg
.	.	.	16ee
.	.	.	16ff
.	.	.	16gg
=105	=105	=105	=105
8FF	8C]	8a	16aa
.	.	.	16ff
8r	8r	8r	16gg
.	.	.	16aa
8F	8g	8dd	16bb
.	.	.	16gg
8F	[8g	8dd	16aa
.	.	.	16bb
=106	=106	=106	=106
8E	8g]	8ee	16ccc
.	.	.	16aa
8E	8g	8ee	16bb
.	.	.	16ccc
8D	8b 8g	8ff	16ddd
.	.	.	16bb
8D	8b 8g	8ff	16ccc
.	.	.	16ddd
=107	=107	=107	=107
8C	8cc 8g	8ee	16eee
.	.	.	16ccc
8D	4r	8ff	16bb
.	.	.	16ddd
8E	.	8gg	16ccc
.	.	.	16aa
8C	8e	8r	16gg
.	.	.	16bb-
=108	=108	=108	=108
8F	8a	4.r	16aa
.	.	.	16ff
8G	8b-	.	16ee
.	.	.	16gg
8A	8cc	.	16ff
.	.	.	16dd
8G	8e	8B-	16cc#
.	.	.	16ee
=109	=109	=109	=109
4F	8f	4A	4dd
.	16a	.	.
.	16g	.	.
4r	16f	4r	8r
.	16a	.	.
.	16g	.	16bb-
.	16f	.	16aa
=110	=110	=110	=110
4.r	16e	8r	16gg
.	16g	.	16bb-
.	16f	16d	16aa
.	16e	16e	16gg
.	8d	16f	16ff
.	.	16d	16aa
16C#	8r	16e	16gg
16D	.	16f	16ff
=111	=111	=111	=111
16E	8r	16g	8ee
16C#	.	16e	.
16D	16a	16f	4r
16E	16g	16g	.
16F	16f	8a	.
16D	16a	.	.
16E	16g	8r	16bb-
16F	16f	.	16aa
=112	=112	=112	=112
8G	16e	8r	16gg
.	16g	.	16bb-
4r	16f	16d	16aa
.	16e	16e	16gg
.	8d	16f	16ff
.	.	16d	16aa
16C#	8r	16e	16gg
16D	.	16f	16ff
=113	=113	=113	=113
16E	8r	16g	8ee
16C#	.	16e	.
16D	16a	16f	4r
16E	16g	16g	.
16F	16f	8a	.
16D	16a	.	.
16E	16g	8r	16bb-
16F	16f	.	16aa
=114	=114	=114	=114
8G	16e	8r	16gg
.	16g	.	16bb-
4r	16f	16d	16aa
.	16e	16e	16gg
.	8d	16f	16ff
.	.	16d	16aa
16C#	8r	16e	16gg
16D	.	16f	16ff
=115	=115	=115	=115
16E	8r	16g	16ee
16C#	.	16e	16gg
16D	16a	16f	16ff
16E	16g	16g	16ee
16F	16f	16a	16dd
16D	16a	16f	16ff
16E	16g	16g	16ee
16F	16f	16a	16dd
=116	=116	=116	=116
2F#	2e-	2A	16b
.	.	.	16cc
.	.	.	16dd
.	.	.	16ee-
.	.	.	16gg#
.	.	.	16aa
.	.	.	16bb
.	.	.	16ccc
=117	=117	=117	=117
8G	8e	8c	16eee
.	.	.	16ddd
8G	8e	8c	16ccc
.	.	.	16bb
8r	8r	8r	16aa
.	.	.	16gg
8G	8e	8c	16ff
.	.	.	16ee
=118	=118	=118	=118
8G	8g	8e	16ccc
.	.	.	16bb
8G	8g	8e	16aa
.	.	.	16gg
8r	8r	8r	16ff
.	.	.	16ee
8G	8g	8e	16dd
.	.	.	16cc
=119	=119	=119	=119
8GG	2g	16G	16ff#
.	.	16e	16gg
8G	.	16d#	16ff#
.	.	16e	16gg
8G	.	16d	8ee
.	.	16c	.
8G	.	16B	16dd
.	.	16c	16cc
=120	=120	=120	=120
8GG	2B	16G	2dd
.	.	16f	.
8G	.	16e	.
.	.	16f	.
8G	.	16g	.
.	.	16f	.
8G	.	16e	.
.	.	16f	.
=121	=121	=121	=121
8C	8c	4e	4cc
8CC	4G 4C	.	.
8CC	.	4r	8r
8CC	[8G [8C	.	16aa
.	.	.	16gg
=122	=122	=122	=122
8CC	8G] 8C]	8d#	16ff#
.	.	.	16aa
8CC	4G 4C	4e	16gg
.	.	.	16ff#
8CC	.	.	16aa
.	.	.	16gg
8CC	[8G [8C	8d#	16ff#
.	.	.	16aa
=123	=123	=123	=123
8CC	8G] 8C]	8e	16gg
.	.	.	16ff#
8CC	4G 4C	4d#	16aa
.	.	.	16gg
8CC	.	.	16ff#
.	.	.	16aa
8CC	[8G [8C	[8e	16gg
.	.	.	16ff#
=124	=124	=124	=124
8CC	8G] 8C]	8e]	16aa
.	.	.	16gg
8r	8e 8G	8g	16ff
.	.	.	16ee
8GG	8f 8G	8b	16dd
.	.	.	16cc
8r	8f 8G	8b	16dd
.	.	.	16ee
=125	=125	=125	=125
8C	8e 8G	4cc	8cc
8CC	4G 4C	.	8ee
8CC	.	4r	8g
8CC	[8G [8C	.	16aa
.	.	.	16gg
=126	=126	=126	=126
8CC	8G] 8C]	8d#	16ff#
.	.	.	16aa
8CC	4G 4C	4e	16gg
.	.	.	16ff#
8CC	.	.	16aa
.	.	.	16gg
8CC	[8G [8C	8d#	16ff#
.	.	.	16aa
=127	=127	=127	=127
8CC	8G] 8C]	8e	16gg
.	.	.	16ff#
8CC	4G 4C	4d#	16aa
.	.	.	16gg
8CC	.	.	16ff#
.	.	.	16aa
8CC	[8G [8C	[8e	16gg
.	.	.	16ff#
=128	=128	=128	=128
8CC	8G] 8C]	8e]	16aa
.	.	.	16gg
8r	8e 8G	8g	16ff
.	.	.	16ee
8GG	8f 8G	8b	16dd
.	.	.	16cc
8r	8f 8G	8b	16dd
.	.	.	16ee
=129	=129	=129	=129
8C	8e 8G	8cc	8cc
4r	16a	4r	4r
.	16g	.	.
.	16f#	.	.
.	16a	.	.
8G	16g	16b	16dd
.	16f#	32a	32cc
.	.	32b	32dd
=130	=130	=130	=130
8c	16a	8cc	8ee
.	16g	.	.
4r	16f#	4r	4r
.	16a	.	.
.	16g	.	.
.	16f#	.	.
8G	16a	16dd	16ff
.	16g	32cc	32ee
.	.	32dd	32ff
=131	=131	=131	=131
8c	16f#	8cc	8ee
.	16a	.	.
4r	16g	4r	4r
.	16f#	.	.
.	16a	.	.
.	16g	.	.
8G	16f#	16dd	16bb
.	16f	32cc	32aa
.	.	32dd	32bb
=132	=132	=132	=132
8c	16e	8ee	8ccc
.	16g	.	.
8r	16f	8r	8ccc
.	16e	.	.
8G	16d	8b	8gg
.	16f	.	.
8r	16e	8r	8gg
.	16d	.	.
=133	=133	=133	=133
8C	8c	8cc	8cc
8r	8r	8r	8r
8r	8r	8r	8r
8r	8r	8r	8r
=134	=134	=134	=134
[2DD-	[2A- [2F	[2d-	4.r
.	.	.	16bb-
.	.	.	16aa-
=135	=135	=135	=135
2DD-_	2A-_ 2F_	2d-_	16gg
.	.	.	16bb-
.	.	.	16aa-
.	.	.	16gg
.	.	.	16bb-
.	.	.	16aa-
.	.	.	16gg
.	.	.	16bb-
=136	=136	=136	=136
2DD-_	2A-_ 2F_	2d-_	16aa-
.	.	.	16gg
.	.	.	16bb-
.	.	.	16aa-
.	.	.	16gg
.	.	.	16bb-
.	.	.	16aa-
.	.	.	16gg-
=137	=137	=137	=137
2DD-_	4A-] 4F]	4d-]	16ff
.	.	.	16aa-
.	.	.	16gg-
.	.	.	16ff
.	4G-	4c	16ee-
.	.	.	16gg-
.	.	.	16ff
.	.	.	16ee-
=138	=138	=138	=138
2DD-_	4A- 4F	4d-	16dd-
.	.	.	16ff
.	.	.	16ee-
.	.	.	16dd-
.	8A-	8e-	16cc
.	.	.	16ee-
.	8A-	8e-	16dd-
.	.	.	16cc
=139	=139	=139	=139
8DD-]	8d-	8f	16b-
.	.	.	16dd-
16r	8d-	8f	16cc
16d-	.	.	16b-
16c	8D-	8f	16a-
16e-	.	.	16cc
16d-	8D-	8f	16b-
16c	.	.	16a-
=140	=140	=140	=140
16e-	[2E-	[2B-	[2g
16d-	.	.	.
16c	.	.	.
16e-	.	.	.
16d-	.	.	.
16c	.	.	.
16e-	.	.	.
16d-	.	.	.
=141	=141	=141	=141
16c	2E-_	2B-_	2g_
16e-	.	.	.
16d-	.	.	.
16c	.	.	.
16e-	.	.	.
16d-	.	.	.
16c	.	.	.
16e-	.	.	.
=142	=142	=142	=142
16d-	2E-_	4B-]	4g]
16c	.	.	.
16e-	.	.	.
16d-	.	.	.
16c	.	4e-	8.a-
16e-	.	.	.
16d-	.	.	.
16c	.	.	32g
.	.	.	32a-
=143	=143	=143	=143
16B-	2E-_	4g	4b-
16d-	.	.	.
16c	.	.	.
16B-	.	.	.
16A-	.	8a-	8cc
16c	.	.	.
16B-	.	8a-	8cc
16A-	.	.	.
=144	=144	=144	=144
16G	4E-]	4b-	8dd-
16B-	.	.	.
16A-	.	.	8dd-
16G	.	.	.
16F	4D-	8r	8bb-
16A-	.	.	.
16G	.	16b-	8bb-
16F	.	16a	.
=145	=145	=145	=145
[2E	[2C	16cc	[2G
.	.	16b-	.
.	.	16a	.
.	.	16cc	.
.	.	16b-	.
.	.	16a	.
.	.	16cc	.
.	.	16b-	.
=146	=146	=146	=146
2E_	2C_	16a	2G_
.	.	16cc	.
.	.	16b-	.
.	.	16a	.
.	.	16cc	.
.	.	16b-	.
.	.	16a	.
.	.	16cc	.
=147	=147	=147	=147
4E]	2C_	16b-	4G]
.	.	16a	.
.	.	16cc	.
.	.	16b-	.
8.F	.	16a-	8.A-
.	.	16cc	.
.	.	16b-	.
32E	.	16a-	32G
32F	.	.	32A-
=148	=148	=148	=148
4G	2C_	16g	4B-
.	.	16b-	.
.	.	16a-	.
.	.	16g	.
8A-	.	16f	8c
.	.	16a-	.
8A-	.	16g	8c
.	.	16f	.
=149	=149	=149	=149
8G	4C]	16e	8B-
.	.	16g	.
8C	.	16f	8B-
.	.	16e	.
8BB-	8r	16d	8G
.	.	16f	.
8B-	16g	16e	16c#
.	16f#	16d	16d
=150	=150	=150	=150
[2A	16a	[2c#	[2e
.	16g	.	.
.	16f#	.	.
.	16a	.	.
.	16g	.	.
.	16f#	.	.
.	16a	.	.
.	16g	.	.
=151	=151	=151	=151
2A_	16f#	2c#_	2e_
.	16a	.	.
.	16g	.	.
.	16f#	.	.
.	16a	.	.
.	16g	.	.
.	16f#	.	.
.	16a	.	.
=152	=152	=152	=152
2A_	16g	4c#]	4e]
.	16f#	.	.
.	16a	.	.
.	16g	.	.
.	16f	8.d	8.f
.	16a	.	.
.	16g	.	.
.	16f	32c#	32e
.	.	32d	32f
=153	=153	=153	=153
8A]	16e	4e	4g
.	16g	.	.
8A	16f	.	.
.	16e	.	.
8AA	16d	8A	8f
.	16f	.	.
8A	16e	8A	8f
.	16d	.	.
=154	=154	=154	=154
8AA	16c#	8A	8e
.	16e	.	.
8A	16d	8e	8a
.	16c#	.	.
8AA	16B	8d	8g#
.	16d	.	.
8AA	16c#	8g#	8dd
.	16B	.	.
=155	=155	=155	=155
8AA	8A	16r	8cc#
.	.	16b-	.
4.r	4.r	16a	4.r
.	.	16g#	.
.	.	16b-	.
.	.	16a	.
.	.	16g#	.
.	.	16b-	.
=156	=156	=156	=156
2r	4r	16a	4r
.	.	16g#	.
.	.	16b-	.
.	.	16a	.
.	8A	16g#	8ee 8cc#
.	.	16g	.
.	8r	16f	8r
.	.	16e	.
=157	=157	=157	=157
16r	8F#	8d	8aa 8cc
16e-	.	.	.
16d	4.r	4.r	8r
16c#	.	.	.
16e-	.	.	4g
16d	.	.	.
16c#	.	.	.
16e-	.	.	.
=158	=158	=158	=158
16d	4r	4r	8f#
16c#	.	.	.
16e-	.	.	8r
16d	.	.	.
16c#	8f#	8dd	8aa
16c	.	.	.
16B	8r	8r	8r
16A	.	.	.
=159	=159	=159	=159
8G	16r	8b	8ddd
.	16a-	.	.
4.r	16g	8r	4.r
.	16f#	.	.
.	16a-	4c	.
.	16g	.	.
.	16f#	.	.
.	16a-	.	.
=160	=160	=160	=160
4r	16g	8B	2r
.	16f#	.	.
.	16a-	8r	.
.	16g	.	.
8B	16f#	8dd 8g	.
.	16f	.	.
8r	16e	8r	.
.	16d	.	.
=161	=161	=161	=161
8e	8c	8gg 8b-	16r
.	.	.	16ddd-
8r	4.r	4.r	16ccc
.	.	.	16bb
4FF	.	.	16ddd-
.	.	.	16ccc
.	.	.	16bb
.	.	.	16ddd-
=162	=162	=162	=162
8EE	4r	4r	16ccc
.	.	.	16bb
8r	.	.	16ddd-
.	.	.	16ccc
8c	8e	8g	16bb
.	.	.	16bb-
8r	8r	8r	16aa
.	.	.	16gg
=163	=163	=163	=163
8A	8cc 8f	16r	8ff
.	.	16gg-	.
4.r	8r	16ff	4.r
.	.	16ee	.
.	4B-	16gg-	.
.	.	16ff	.
.	.	16ee	.
.	.	16gg-	.
=164	=164	=164	=164
4r	8A	16ff	4r
.	.	16ee	.
.	8r	16gg-	.
.	.	16ff	.
8FF	8c	16ee	8a
.	.	16ee-	.
8r	8r	16dd	8r
.	.	16cc	.
=165	=165	=165	=165
4BB-	4d	4b-	16ddd
.	.	.	16bb-
.	.	.	16ff
.	.	.	16dd
8r	8r	8r	16b-
.	.	.	16dd
16B-	16dd	8d	16ff
16A	16cc	.	16bb-
=166	=166	=166	=166
16G	16b-	8g	8ddd
16B-	16dd	.	.
16A	16cc	8r	8g
16G	16b-	.	.
16F	16a	8a	8f
16A	16cc	.	.
16G	16b-	8r	8ddd
16F	16a	.	.
=167	=167	=167	=167
4E	16g#	4b	4e
.	16e	.	.
.	16B	.	.
.	16G#	.	.
4r	16E	8r	8r
.	16G#	.	.
.	16B	16d#	16ff#
.	16e	16e	16gg#
=168	=168	=168	=168
8BB	8d#	16f#	16aa
.	.	16d#	16ff#
8r	8D#	16e	16gg#
.	.	16f#	16aa
8EE	8D	16g#	16bb
.	.	16e	16gg#
8r	8d	16f#	16aa
.	.	16g#	16bb
=169	=169	=169	=169
4AA	4c	4a	16ccc
.	.	.	16aa
.	.	.	16ee
.	.	.	16cc
8r	8r	8r	16a
.	.	.	16cc
16A	16cc	8c	16ee
16G	16b-	.	16aa
=170	=170	=170	=170
16F#	16a	8f#	8ccc
16A	16cc	.	.
16G	16b-	8r	8f#
16F#	16a	.	.
16E	16g	8g	8e
16G	16b-	.	.
16F#	16a	8r	8ccc
16E	16g	.	.
=171	=171	=171	=171
4D	16f#	4a	4d
.	16d	.	.
.	16A	.	.
.	16F#	.	.
4r	16D	8r	8r
.	16F#	.	.
.	16A	16c#	16ee
.	16d	16d	16ff#
=172	=172	=172	=172
8AA	8c#	16e	16gg
.	.	16c#	16ee
8r	8C#	16d	16ff#
.	.	16e	16gg
8DD	8C	16f#	16aa
.	.	16d	16ff#
8r	8c	16e	16gg
.	.	16f#	16aa
=173	=173	=173	=173
4GG	4B-	4g	16bb-
.	.	.	16gg
.	.	.	16dd
.	.	.	16b-
8r	8r	8r	16g
.	.	.	16b-
16G	16b-	8B-	16dd
16F	16a	.	16gg
=174	=174	=174	=174
16E	16g	8e	8bb-
16G	16b-	.	.
16F	16a	8r	8e
16E	16g	.	.
16D	16f	8f	8d
16F	16a	.	.
16E	16g	8r	8bb-
16D	16f	.	.
=175	=175	=175	=175
4C	16e	4g	16r
.	16c	.	16ccc
.	16G	.	16bb-
.	16E	.	16aa
4r	16C	4r	16ccc
.	16E	.	16bb-
.	16G	.	16aa
.	16c	.	16ccc
=176	=176	=176	=176
16CC	4e	2r	16bb-
16EE	.	.	16aa
16GG	.	.	16ccc
16C	.	.	16bb-
16E	4r	.	16aa
16C	.	.	16ccc
16GG	.	.	16bb-
16EE	.	.	16aa
=177	=177	=177	=177
4CC	16c	16r	[2bb-
.	16e	16aa	.
.	16g	16gg	.
.	16cc	16ff#	.
4r	16ee	16aa	.
.	16cc	16gg	.
.	16g	16ff#	.
.	16e	16aa	.
=178	=178	=178	=178
16e	4c	16gg	2bb-_
16c	.	16ff#	.
16G	.	16aa	.
16E	.	16gg	.
16C	4r	16ff#	.
16E	.	16aa	.
16G	.	16gg	.
16c	.	16ff#	.
=179	=179	=179	=179
[2e	16r	[2gg	2bb-_
.	16dd-	.	.
.	16cc	.	.
.	16b	.	.
.	16dd-	.	.
.	16cc	.	.
.	16b	.	.
.	16dd-	.	.
=180	=180	=180	=180
2e_	16cc	2gg_	2bb-_
.	16b	.	.
.	16dd-	.	.
.	16cc	.	.
.	16b	.	.
.	16dd-	.	.
.	16cc	.	.
.	16b	.	.
=181	=181	=181	=181
8e]	8cc	8gg]	16bb-]
.	.	.	16ddd
4.r	4.r	4.r	16ccc
.	.	.	16bb
.	.	.	16ddd
.	.	.	16ccc
.	.	.	16bb
.	.	.	16ddd
=182	=182	=182	=182
8e	8cc	8bb- 8gg	16ccc
.	.	.	16bb
8r	8r	8r	16ddd
.	.	.	16ccc
8e	8cc	8bb- 8gg	16bb
.	.	.	16ddd
8r	8r	8r	16ccc
.	.	.	16bb
=183	=183	=183	=183
8e	8cc	8bb- 8gg	16ddd
.	.	.	16ccc
4.r	4.r	4.r	16bb
.	.	.	16ddd
.	.	.	16ccc
.	.	.	16bb
.	.	.	16ddd
.	.	.	16ccc
=184	=184	=184	=184
2r	2r	2r	16bb
.	.	.	16ddd
.	.	.	16ccc
.	.	.	16bb
.	.	.	16ddd
.	.	.	16ccc
.	.	.	16bb
.	.	.	16bb-
=185	=185	=185	=185
8F	8c	8f	16aa
.	.	.	16ccc
8F	8c	8f	16bb-
.	.	.	16aa
8C	8e	8b-	16gg
.	.	.	16bb-
8C	8e	8b-	16aa
.	.	.	16gg
=186	=186	=186	=186
4FF	4f	4a	16ee
.	.	.	16ff
.	.	.	16aa
.	.	.	16ff
8r	8r	8r	8cc
8F	8f	8a	8cc#
=187	=187	=187	=187
8F	8f	8b-	16dd
.	.	.	16ee
8F	8f	8b-	16ff
.	.	.	16gg
8F	8f	8b-	16aa
.	.	.	16bb-
8F	8f	8b-	16ccc
.	.	.	16ddd
=188	=188	=188	=188
4.F	4g	4ee	8ccc
.	.	.	8bb-
.	8a	8ff	8aa
8r	16cc	8r	8r
.	16b-	.	.
=189	=189	=189	=189
8F	16a	2r	2r
.	16cc	.	.
8c	16b-	.	.
.	16a	.	.
8G	16g	.	.
.	16b-	.	.
8c	16a	.	.
.	16g	.	.
=190	=190	=190	=190
8A	16f	2r	2r
.	16a	.	.
8c	16g	.	.
.	16f	.	.
8G	16e	.	.
.	16g	.	.
8c	16f	.	.
.	16e	.	.
=191	=191	=191	=191
8F	16d	8r	2r
.	16f	.	.
8A	16e	4c	.
.	16d	.	.
8G	16g	.	.
.	16e	.	.
8GG	16f	8B	.
.	16d	.	.
=192	=192	=192	=192
8C	4c	4c	2r
8GG	.	.	.
8CC	8r	4r	.
8r	16e	.	.
.	16f	.	.
=193	=193	=193	=193
8B-	16g	8c	8e
.	16a	.	.
8B-	16g	8c	8e
.	16a	.	.
8A	8f	8c	8f
8r	16g	8r	8r
.	16a	.	.
=194	=194	=194	=194
8E	16b-	8c	8g
.	16cc	.	.
8E	16b-	8c	8g
.	16cc	.	.
8F	8a	8c	8f
8r	16dd	8r	8r
.	16cc	.	.
=195	=195	=195	=195
8D	16b-	8f	8B-
.	16cc	.	.
8C	16a	8e	8c
.	16b-	.	.
8BB-	16g	4d	8d
.	16a	.	.
8BB	16f	.	8G
.	16g	.	.
=196	=196	=196	=196
8C	16e	8c	[4G
.	16f	.	.
8GG	16d	8B	.
.	16e	.	.
8CC	8c	8c	8G]
8r	8r	8r	16ddd
.	.	.	16ccc
=197	=197	=197	=197
2r	2r	8dd	16bb-
.	.	.	16ddd
.	.	8ff	16ccc
.	.	.	16bb-
.	.	8cc	16aa
.	.	.	16ccc
.	.	8ff	16bb-
.	.	.	16aa
=198	=198	=198	=198
2r	2r	8b-	16gg
.	.	.	16bb-
.	.	8ff	16aa
.	.	.	16gg
.	.	8a	16ff
.	.	.	16aa
.	.	8ff	16gg
.	.	.	16ff
=199	=199	=199	=199
2r	2r	8b-	16gg
.	.	.	16aa
.	.	8g	16bb-
.	.	.	16gg
.	.	8cc	16ee
.	.	.	16ff
.	.	8c	16gg
.	.	.	16aa
=200	=200	=200	=200
2r	8r	4f	4ff
.	8c	.	.
.	8E	8r	4r
.	8c	16cc	.
.	.	16b-	.
=201	=201	=201	=201
4.r	8F	16a	4.r
.	.	16cc	.
.	8c	16b-	.
.	.	16a	.
.	8G	16g	.
.	.	16b-	.
16C	[8c	16a	16e
16BB-	.	16g	32d
.	.	.	32e
=202	=202	=202	=202
16AA	8c]	4f	4f
16C	.	.	.
16BB-	8c	.	.
16AA	.	.	.
16GG	8E	8r	8r
16BB-	.	.	.
16AA	8c	16cc	16g
16GG	.	16b-	32f
.	.	.	32g
=203	=203	=203	=203
4FF	8F	16a-	4a-
.	.	16cc	.
.	8c	16b-	.
.	.	16a-	.
8r	8G	16g	8r
.	.	16b-	.
16c	[8c	16a-	16ee
16B-	.	16g	32dd
.	.	.	32ee
=204	=204	=204	=204
16A-	8c]	4f	4ff
16c	.	.	.
16B-	8cc	.	.
16A-	.	.	.
16G	8e	8r	8r
16B-	.	.	.
16A-	8cc	16ccc	16gg
16G	.	16bb-	32ff
.	.	.	32gg
=205	=205	=205	=205
8F	8f	16aa-	4aa-
.	.	16ccc	.
4r	8cc	16bb-	.
.	.	16aa-	.
.	8g	16gg	8r
.	.	16bb-	.
16ccc	8r	16aa-	16eee
16bb-	.	16gg	32ddd
.	.	.	32eee
=206	=206	=206	=206
16aa-	4.r	16ff	8fff
16ccc	.	16aa-	.
16bb-	.	16gg	8r
16aa-	.	16ff	.
16gg	.	16ee-	4c
16bb-	.	16gg	.
16aa-	16cc	16ff	.
16gg	16b-	16ee-	.
=207	=207	=207	=207
16ff	16a-	16dd-	8.f
16aa-	16cc	16ff	.
16gg	16b-	16ee-	.
16ff	16a-	16dd-	48g
.	.	.	48a-
.	.	.	48b-
16ee-	16g	16cc	8.cc
16gg	16b-	16ee-	.
16ff	16a-	16dd-	.
16ee-	16g	16cc	32dd
.	.	.	32ee-
=208	=208	=208	=208
16dd-	16f	16b-	8ff
16ff	16a-	16dd-	.
16ee-	16g	16cc	8ff
16dd-	16f	16b-	.
16cc	16e-	16a-	8.ff
16ee-	16g	16cc	.
16dd-	16f	16b-	.
16cc	16e-	16a-	32gg
.	.	.	32aa-
=209	=209	=209	=209
16b-	16d-	16g	8bb-
16dd-	16f	16b-	.
16cc	16e-	16a-	8bb-
16b-	16d-	16g	.
16a-	16c	16f	8ddd-
16cc	16e-	16a-	.
16b-	16d-	16g	8ddd-
16a-	16c	16f	.
=210	=210	=210	=210
4.g	4.B-	4.e-	4.d-
8r	8r	8r	16gg
.	.	.	16ff
=211	=211	=211	=211
2r	2G	2b-	16ee-
.	.	.	16gg
.	.	.	16ff
.	.	.	16ee-
.	.	.	16dd-
.	.	.	16ff
.	.	.	16ee-
.	.	.	16dd-
=212	=212	=212	=212
2r	4A-	4e-	4cc
.	4r	4r	16r
.	.	.	16ee-
.	.	.	16dd-
.	.	.	16cc
=213	=213	=213	=213
2r	4D-	4f	4b-
.	8r	8r	4r
.	8r	16ee-	.
.	.	16dd-	.
=214	=214	=214	=214
2D-	2f	16cc	2r
.	.	16ee-	.
.	.	16dd-	.
.	.	16cc	.
.	.	16b-	.
.	.	16dd-	.
.	.	16cc	.
.	.	16b-	.
=215	=215	=215	=215
4E-	4c	4a-	2r
4r	4r	16r	.
.	.	16cc	.
.	.	16b-	.
.	.	16a-	.
=216	=216	=216	=216
4E	4c#	4g	4.r
8r	8r	8r	.
8E	16a	8e	8cc#
.	16g	.	.
=217	=217	=217	=217
4F	16f	4a	4dd
.	16a	.	.
.	16g	.	.
.	16f	.	.
4G	16e	4g	4ee
.	16g	.	.
.	16f	.	.
.	16e	.	.
=218	=218	=218	=218
4A	4d	4f	4ff
4r	16r	4r	4r
.	16f	.	.
.	16e	.	.
.	16d	.	.
=219	=219	=219	=219
4AA	4c	4e-	4f
8r	8r	8r	8r
16F	8A	8c	8f
16E-	.	.	.
=220	=220	=220	=220
16D	8B-	8f	8b-
16F	.	.	.
16E-	8r	8r	8b-
16D	.	.	.
16C	8f	8a 8e-	8.cc
16E-	.	.	.
16D	8r	8r	.
16C	.	.	32b-
.	.	.	32cc
=221	=221	=221	=221
4BB-	4f	4b- 4d	4dd
8r	8r	8r	8r
8BB-	16dd	16ff	16bb-
.	16cc	16ee-	32aa
.	.	.	32bb-
=222	=222	=222	=222
8B-	16b-	16dd	8ddd
.	16dd	16ff	.
8r	16cc	16ee-	8ddd
.	16b-	16dd	.
8d	16a	16cc	8ff#
.	16cc	16ee-	.
8r	16b-	16dd	8ff#
.	16a	16cc	.
=223	=223	=223	=223
8GG	8g	16b-	8gg
.	.	16b-	.
8G	4d	16a	4ddd
.	.	16b-	.
8G	.	16cc	.
.	.	16b-	.
8G	8d	16a	16bb-
.	.	16b-	16gg
=224	=224	=224	=224
8G	8B-	16d	8dd
.	.	16b-	.
8G	4g	16a	8b-
.	.	16b-	.
8G	.	16cc	8g
.	.	16b-	.
8G	8g	16a	8d
.	.	16b-	.
=225	=225	=225	=225
8GG	8F#	16e-	4c
.	.	16a	.
8G	4f#	16g	.
.	.	16a	.
8G	.	16b-	4eee-
.	.	16a	.
8G	8f#	16g	.
.	.	16a	.
=226	=226	=226	=226
8GG	8c	16a	4.e-
.	.	16cc	.
8G	4a	16b	.
.	.	16cc	.
8G	.	16dd	.
.	.	16cc	.
8G	8a	16b	16d
.	.	16cc	16e-
=227	=227	=227	=227
8FF#	8F#	16A	8d
.	.	16d	.
8F#	4a	16c#	4ccc
.	.	16d	.
8F#	.	16e	.
.	.	16d	.
8F#	8a	16c#	16aa
.	.	16d	16ff#
=228	=228	=228	=228
8F#	8F#	16d	8cc
.	.	16a	.
8F#	4d	16g	8a
.	.	16a	.
8F#	.	16b-	8f#
.	.	16a	.
8F#	8d	16g	8c
.	.	16a	.
=229	=229	=229	=229
8FF	8A-	16d	4B
.	.	16a-	.
8F	4f	16g	.
.	.	16a-	.
8F	.	16b-	4ddd
.	.	16a-	.
8F	8f	16g	.
.	.	16a-	.
=230	=230	=230	=230
8FF	8B-	16g	4.d-
.	.	16b-	.
8F	4g	16a	.
.	.	16b-	.
8F	.	16cc	.
.	.	16b-	.
8F	8g	16a	16c
.	.	16b-	16d-
=231	=231	=231	=231
8EE	8E	16G	8c
.	.	16c	.
8E	4g	16B	4bb-
.	.	16c	.
8E	.	16d	.
.	.	16c	.
8E	8g	16B	16gg
.	.	16c	16ee
=232	=232	=232	=232
8EE	8E	16c	8b-
.	.	16g	.
8E	4c	16f#	8g
.	.	16g	.
8E	.	16a	8e
.	.	16g	.
8E	8c	16f#	8B-
.	.	16g	.
=233	=233	=233	=233
8FF	8c	16f	8A
.	.	16a	.
8F	4f	16g	4ccc
.	.	16a	.
8F	.	16b-	.
.	.	16a	.
8F	8f	16g	16aa
.	.	16a	16ff
=234	=234	=234	=234
8AA	8A	16c	8cc
.	.	16f	.
8A	4c	16e	8a
.	.	16f	.
8A	.	16g	8f
.	.	16f	.
8A	8c	16e	8c
.	.	16f	.
=235	=235	=235	=235
8DD	8F	16f	8B
.	.	16b	.
8D	4d	16a	4fff
.	.	16b	.
8D	.	16cc	.
.	.	16b	.
8D	8f	16a	16ddd
.	.	16b	16bb
=236	=236	=236	=236
8BB	8G	16d	8gg
.	.	16dd	.
8B	4g	16cc#	4ddd
.	.	16dd	.
8B	.	16ee	.
.	.	16dd	.
8B	8g	16cc#	16bb
.	.	16dd	16ff
=237	=237	=237	=237
8c	4g	4cc	4ee
8c	.	.	.
8c	8r	8r	8r
8c	16cc	8ee	8gg
.	16b-	.	.
=238	=238	=238	=238
8c	16a	8ff	8aa
.	16cc	.	.
8c	16b-	8ff	8aa
.	16a	.	.
8c	16g	8gg	8bb-
.	16b-	.	.
8c	16a	8gg	8bb-
.	16g	.	.
=239	=239	=239	=239
8c	4f	8aa	8ccc
8c	.	8ff	8aa
8c	8r	8r	8r
8c	8b	16gg	8ddd
.	.	16ff	.
=240	=240	=240	=240
8c	8cc	16ee	8eee
.	.	16gg	.
8c	8cc	16ff	8eee
.	.	16ee	.
8c	8dd	16dd	8fff
.	.	16ff	.
8c	8dd	16ee	8fff
.	.	16dd	.
=241	=241	=241	=241
4c	8ee	4cc	8ggg
.	8cc	.	8eee
8r	8c	8r	8r
8ee	8c	8g	16ccc
.	.	.	16bb-
=242	=242	=242	=242
8ff	8C	8a	16aa
.	.	.	16ccc
8ff	8c	8a	16bb-
.	.	.	16aa
8gg	8C	8b-	16gg
.	.	.	16bb-
8gg	8c	8b-	16aa
.	.	.	16gg
=243	=243	=243	=243
8aa	4C	8cc	4ff
8ff	.	8a	.
8CC	8r	8r	8r
8C	8B	8d	16ggg
.	.	.	16fff
=244	=244	=244	=244
8CC	8c	8e	16eee
.	.	.	16ggg
8C	8c	8e	16fff
.	.	.	16eee
8CC	8d	8f	16ddd
.	.	.	16fff
8C	8d	8f	16eee
.	.	.	16ddd
=245	=245	=245	=245
4CC	4e	4g	4ccc
8r	8r	8r	8r
16GG	16G	16g	16g
16FF	16F	16f	16f
=246	=246	=246	=246
16EE	16E	16e	16e
16GG	16G	16g	16g
16FF	16F	16f	16f
16EE	16E	16e	16e
16DD	16D	16d	16d
16FF	16F	16f	16f
16EE	16E	16e	16e
16DD	16D	16d	16d
=247	=247	=247	=247
4CC	4C	4c	8c
.	.	.	16d
.	.	.	16e
4r	4r	4r	16f
.	.	.	16g
.	.	.	16a
.	.	.	16b
=248	=248	=248	=248
2r	2r	4.r	8cc
.	.	.	16dd
.	.	.	16ee
.	.	.	16ff
.	.	.	16gg
.	.	16ccc	16aa-
.	.	16bb-	16bb-
=249	=249	=249	=249
2r	2r	16aa-	8ccc
.	.	16ccc	.
.	.	16bb-	8ccc
.	.	16aa-	.
.	.	16gg	8ccc
.	.	16bb-	.
.	.	16aa-	8ccc
.	.	16gg	.
=250	=250	=250	=250
2r	2r	16ff	8ccc
.	.	16aa-	.
.	.	16gg	8ccc
.	.	16ff	.
.	.	16ee-	8ccc
.	.	16gg	.
.	.	16ff	8ccc
.	.	16ee-	.
=251	=251	=251	=251
2r	2f	[2dd-	4ccc
.	.	.	8ddd-
.	.	.	8aa
=252	=252	=252	=252
2r	[2g	4.dd-]	8ccc
.	.	.	8bb
.	.	.	8bb-
.	.	16bb-	8bb-
.	.	16aa-	.
=253	=253	=253	=253
2r	2g_	16gg	8bb-
.	.	16bb-	.
.	.	16aa-	8bb-
.	.	16gg	.
.	.	16ff	8bb-
.	.	16aa-	.
.	.	16gg	8bb-
.	.	16ff	.
=254	=254	=254	=254
2r	4g]	16ee-	8bb-
.	.	16gg	.
.	.	16ff	8bb-
.	.	16ee-	.
.	4f	16dd-	8bb-
.	.	16ff	.
.	.	16ee-	8bb-
.	.	16dd-	.
=255	=255	=255	=255
2r	2e	[2cc	4bb-
.	.	.	8ccc
.	.	.	8gg
=256	=256	=256	=256
2r	4.f	4.cc]	8bb-
.	.	.	8aa
.	.	.	8aa-
.	16cc	8r	[8aa-
.	16b-	.	.
=257	=257	=257	=257
2r	16a-	2r	8aa-]
.	16cc	.	.
.	16b-	.	8eee-
.	16a-	.	.
.	16g	.	8eee-
.	16b-	.	.
.	16a-	.	8eee-
.	16g	.	.
=258	=258	=258	=258
4.r	16f	4.r	8eee-
.	16a-	.	.
.	16g	.	8eee-
.	16f	.	.
.	16e-	.	8eee-
.	16g	.	.
16d-	16f	8aa-	8eee-
16c	16e-	.	.
=259	=259	=259	=259
16B-	[2d-	8aa-	4eee-
16d-	.	.	.
16c	.	8aa-	.
16B-	.	.	.
16A-	.	8aa-	8fff
16c	.	.	.
16B-	.	8aa-	8ccc
16A-	.	.	.
=260	=260	=260	=260
16G	4.d-]	8aa-	8eee-
16B-	.	.	.
16A-	.	8aa-	8ddd
16G	.	.	.
16F	.	8aa-	8ddd-
16A-	.	.	.
16G	16b-	8aa-	8ddd-
16F	16a-	.	.
=261	=261	=261	=261
[2E-	16g	4aa-	8ddd-
.	16b-	.	.
.	16a-	.	8ddd-
.	16g	.	.
.	16f	8bb-	8ddd-
.	16a-	.	.
.	16g	8ff	8ddd-
.	16f	.	.
=262	=262	=262	=262
4.E-]	16e-	8aa-	8ddd-
.	16g	.	.
.	16f	8gg	8ddd-
.	16e-	.	.
.	16d-	8gg	8ddd-
.	16f	.	.
16c	16e-	8gg	8ddd-
16B-	16d-	.	.
=263	=263	=263	=263
16A-	[2c	8gg	4ddd-
16c	.	.	.
16B-	.	8gg	.
16A-	.	.	.
16G	.	8gg	8eee-
16B-	.	.	.
16A-	.	8gg	8bb-
16G	.	.	.
=264	=264	=264	=264
16F	4.c]	8gg	8ddd-
16A-	.	.	.
16G	.	8gg	8ccc
16F	.	.	.
16E-	.	8gg	8ccc
16G	.	.	.
16F	16d-	8gg	8ccc
16E-	16e-	.	.
=265	=265	=265	=265
[2D-	16f	4gg	8ccc
.	16d-	.	.
.	16e-	.	8ccc
.	16f	.	.
.	16g	8aa-	8ccc
.	16e-	.	.
.	16f	8ee	8ccc
.	16g	.	.
=266	=266	=266	=266
2D-]	16a-	8gg	8ccc
.	16f	.	.
.	16g	8ff	8fff
.	16a-	.	.
.	16b-	8ff	8bb-
.	16g	.	.
.	16a-	8ff	8bb-
.	16b-	.	.
=267	=267	=267	=267
4C	4cc	4ee	4bb-
4r	4r	4r	16r
.	.	.	16ddd
.	.	.	16ccc
.	.	.	16bb-
=268	=268	=268	=268
4D	4f	4ff	4aa
8r	8r	8r	8r
8r	8r	8r	16ccc
.	.	.	16bb-
=269	=269	=269	=269
2B-	4f#	4ee-	16aa
.	.	.	16ccc
.	.	.	16bb-
.	.	.	16aa
.	4g	4dd	16gg
.	.	.	16bb-
.	.	.	16aa
.	.	.	16gg
=270	=270	=270	=270
4c	4a	4cc	4ff
4r	4r	4r	16r
.	.	.	16aa
.	.	.	16gg
.	.	.	16ff
=271	=271	=271	=271
4C	4g	4b-	4ee
8r	8r	8r	8r
16c	8r	8r	8r
16B-	.	.	.
=272	=272	=272	=272
16A	4.r	2r	2r
16c	.	.	.
16B-	.	.	.
16A	.	.	.
16G	.	.	.
16B-	.	.	.
16A	16f	.	.
16G	16e	.	.
=273	=273	=273	=273
4F	16d	4.r	2r
.	16f	.	.
.	16e	.	.
.	16d	.	.
4E	16c	.	.
.	16e	.	.
.	16d	16g	.
.	16c	16a	.
=274	=274	=274	=274
4D	4B-	16b-	4.r
.	.	16g	.
.	.	16a	.
.	.	16b-	.
4C	4A	16cc	.
.	.	16a	.
.	.	16b-	16gg
.	.	16cc	16aa
=275	=275	=275	=275
4BB-	4G	4dd	16bb-
.	.	.	16gg
.	.	.	16aa
.	.	.	16bb-
4AA	[4F	4ee-	16ccc
.	.	.	16aa
.	.	.	16bb-
.	.	.	16ccc
=276	=276	=276	=276
8BB-	8F]	8dd	16ddd
.	.	.	16bb-
8r	8r	8r	16ccc
.	.	.	16ddd
8B-	8cc	8gg	16eee
.	.	.	16ccc
8B-	8cc	8gg	16ddd
.	.	.	16eee
=277	=277	=277	=277
8A	8cc	8ff	16fff
.	.	.	16ddd
8A	8cc	8ff	16eee
.	.	.	16fff
8G	8cc	8ee 8b-	16ggg
.	.	.	16eee
8G	8cc	8ee 8b-	16fff
.	.	.	16ggg
=278	=278	=278	=278
8F	4cc	8ff 8a	16aaa
.	.	.	16fff
8G	.	8b-	16eee
.	.	.	16ggg
8A	8r	8cc	16fff
.	.	.	16ddd
8F	8A	8r	16ccc
.	.	.	16eee-
=279	=279	=279	=279
8B-	8d	4.r	16ddd
.	.	.	16bb-
8c	8e-	.	16aa
.	.	.	16ccc
8d	8f	.	16bb-
.	.	.	16gg
8c	8a	8e-	16ff#
.	.	.	16aa
=280	=280	=280	=280
4B-	8b-	4d	4gg
.	16d	.	.
.	16c	.	.
4r	16B-	4r	8r
.	16d	.	.
.	16c	.	16ee-
.	16B-	.	16dd
=281	=281	=281	=281
4.r	16A	8r	16cc
.	16c	.	16ee-
.	16B-	16G	16dd
.	16A	16A	16cc
.	8G	16B-	16b-
.	.	16G	16dd
16FF#	8r	16A	16cc
16GG	.	16B-	16b-
=282	=282	=282	=282
16AA	8r	16c	8a
16FF#	.	16A	.
16GG	16dd	16B-	4r
16AA	16cc	16c	.
16BB-	16b-	8d	.
16GG	16dd	.	.
16AA	16cc	8r	16eee-
16BB-	16b-	.	16ddd
=283	=283	=283	=283
8C	16a	8r	16ccc
.	16cc	.	16eee-
4r	16b-	16g	16ddd
.	16a	16a	16ccc
.	8g	16b-	16bb-
.	.	16g	16ddd
16F#	8r	16a	16ccc
16G	.	16b-	16bb-
=284	=284	=284	=284
16A	8r	16cc	8aa
16F#	.	16a	.
16G	16dd	16b-	4r
16A	16cc	16cc	.
16B-	16b-	8dd	.
16G	16dd	.	.
16A	16cc	8r	16eee-
16B-	16b-	.	16ddd
=285	=285	=285	=285
8c	16a	8r	16ccc
.	16cc	.	16eee-
4r	16b-	16g	16ddd
.	16a	16a	16ccc
.	8g	16b-	16bb-
.	.	16g	16ddd
16F#	8r	16a	16ccc
16G	.	16b-	16bb-
=286	=286	=286	=286
16A	8r	16cc	16aa
16F#	.	16a	16ccc
16G	16dd	16b-	16bb-
16A	16cc	16cc	16aa
16B-	16b-	16dd	16gg
16G	16dd	16b-	16bb-
16A	16cc	16cc	16aa
16B-	16b-	16dd	16gg
=287	=287	=287	=287
2B	2a-	2f 2d	16ee
.	.	.	16ff
.	.	.	16gg
.	.	.	16aa-
.	.	.	16gg
.	.	.	16aa-
.	.	.	16gg
.	.	.	16aa-
=288	=288	=288	=288
2c	2f	2a 2e-	16ee
.	.	.	16ff
.	.	.	16gg#
.	.	.	16aa
.	.	.	16gg#
.	.	.	16aa
.	.	.	16gg#
.	.	.	16aa
=289	=289	=289	=289
2d	2f	2b- 2d	16ee
.	.	.	16ff
.	.	.	16aa
.	.	.	16bb-
.	.	.	16aa
.	.	.	16bb-
.	.	.	16aa
.	.	.	16bb-
=290	=290	=290	=290
2d-	2a-	2b 2f	16ee
.	.	.	16ff
.	.	.	16aa#
.	.	.	16bb
.	.	.	16aa#
.	.	.	16bb
.	.	.	16aa#
.	.	.	16bb
=291	=291	=291	=291
8c	8a 8f	8cc	16ccc
.	.	.	16aa
8c	8a 8f	8cc	16fff
.	.	.	16eee
8r	8r	8r	16fff
.	.	.	16eee
8c	8a 8f	8cc	16fff
.	.	.	16eee
=292	=292	=292	=292
8c	8cc	8ff 8a	16fff
.	.	.	16ccc
8c	8cc	8ff 8a	16aaa
.	.	.	16ggg#
8r	8r	8r	16aaa
.	.	.	16ggg#
8c	8cc	8ff 8a	16aaa
.	.	.	16ggg#
=293	=293	=293	=293
8c	8cc	8ff 8a	16aaa
.	.	.	16ggg
8r	8f	8a	16fff
.	.	.	16eee
8C	8f	8a	16fff
.	.	.	16eee
8r	8f	8a	16ddd
.	.	.	16ccc
=294	=294	=294	=294
8AA	8f	8a	16ddd
.	.	.	16ccc
8r	8f	8a	16bb-
.	.	.	16aa
8FF	8f	8a	16bb-
.	.	.	16aa
8r	8f	8a	16gg
.	.	.	16ff
=295	=295	=295	=295
8CC	8A	16c	16bb
.	.	16a	16ccc
8C	4c	16g#	16bb
.	.	16a	16ccc
8C	.	16g	8aa
.	.	16f	.
8C	[8c	16e	16gg
.	.	16f	16ff
=296	=296	=296	=296
8C	8c]	16e	2gg
.	.	16b-	.
8C	4e	16a	.
.	.	16b-	.
8C	.	16cc	.
.	.	16b-	.
8C	8e	16a	.
.	.	16b-	.
=297	=297	=297	=297
8F	8f	4a	4ff
8FF	4A 4C	.	.
8FF	.	4r	8r
8FF	[8A [8C	.	16ddd
.	.	.	16ccc
=298	=298	=298	=298
8FF	8A] 8C]	2f	16bb
.	.	.	16ddd
8FF	4A 4C	.	16ccc
.	.	.	16bb
8FF	.	.	16ddd
.	.	.	16ccc
8FF	[8A [8C	.	16bb
.	.	.	16ddd
=299	=299	=299	=299
8FF	8A] 8C]	4f	16ccc
.	.	.	16bb
8FF	4A 4C	.	16ddd
.	.	.	16ccc
8FF	.	4f	16bb
.	.	.	16ddd
8FF	[8A [8C	.	16ccc
.	.	.	16bb
=300	=300	=300	=300
8FF	8A] 8C]	8f	16ddd
.	.	.	16ccc
8r	8c	8f	16bb-
.	.	.	16aa
8C	8c	8e 8B-	16gg
.	.	.	16ff
8r	8c	8e 8B-	16gg
.	.	.	16aa
=301	=301	=301	=301
8F	8c	4f 4A	8ff
8FF	4A 4C	.	8aa
8FF	.	4r	8cc
8FF	8A 8C	.	16ddd
.	.	.	16ccc
=302	=302	=302	=302
8FF	8G# 8C	2ff	16bb
.	.	.	16ddd
8FF	4A	.	16ccc
.	.	.	16bb
8FF	.	.	16ddd
.	.	.	16ccc
8FF	8G#	.	16bb
.	.	.	16ddd
=303	=303	=303	=303
8FF	8A 8C	4ff	16ccc
.	.	.	16bb
8FF	4G#	.	16ddd
.	.	.	16ccc
8FF	.	4ff	16bb
.	.	.	16ddd
8FF	[8A	.	16ccc
.	.	.	16bb
=304	=304	=304	=304
8FF	8A] 8C	8ff	16ddd
.	.	.	16ccc
8r	8c	8f	16bb-
.	.	.	16aa
8C	8c	8e 8B-	16gg
.	.	.	16ff
8r	8c	8e 8B-	16gg
.	.	.	16aa
=305	=305	=305	=305
8F	8c	8f 8A	8ff
4r	16dd	4r	4r
.	16cc	.	.
.	16b	.	.
.	16dd	.	.
8c	16cc	16ee	16gg
.	16b	32dd	32ff
.	.	32ee	32gg
=306	=306	=306	=306
8f	16dd	8ff	8aa
.	16cc	.	.
4r	16b	4r	4r
.	16dd	.	.
.	16cc	.	.
.	16b	.	.
8c	16dd	16gg	16bb-
.	16cc	32ff	32aa
.	.	32gg	32bb-
=307	=307	=307	=307
8f	16b	8ff	8aa
.	16dd	.	.
4r	16cc	4r	4r
.	16b	.	.
.	16dd	.	.
.	16cc	.	.
8c	16b	16gg	16eee
.	16b-	32ff	32ddd
.	.	32gg	32eee
=308	=308	=308	=308
8f	16a	8aa	8fff
.	16cc	.	.
8r	16b-	8r	8fff
.	16a	.	.
8c	16g	8ee	8ccc
.	16b-	.	.
8r	16a	8r	8ccc
.	16g	.	.
=309	=309	=309	=309
8F	8f	8ff	8ff
8r	8r	8r	8r
8r	8r	8r	8r
8r	8r	8r	8r
==	==	==	==
*-	*-	*-	*-
!!!RWG1: This file contains only pitch and duration data.
!!!RWG2: Transposing instruments are not transposed.
!!!RWG3: Spines may have incompatible meters.
!!!RWG4: Durations of rests and tied notes may be interpreted.
!!!RWG: Key is interpreted using the Humdrum key tool.
!!!AFT: stage1
!!!END: 1997/04/15
!!!KEY: 3566873943
!!!EMD: Converted from MuseData to Humdrum Dec 16, 2000, by Andreas Kornstaedt using muse2kern.
!!!EMD: Manual editing by Craig Sapp, Nov 2001
